Flat-Remix-Dark/apps/scalable/lollypop.svg

<svg xmlns="http://www.w3.org/2000/svg" xmlns:xlink="http://www.w3.org/1999/xlink" width="384pt" height="384pt" version="1.1" viewBox="0 0 384 384"> <defs> <filter id="alpha" width="100%" height="100%" x="0%" y="0%" filterUnits="objectBoundingBox"> <feColorMatrix in="SourceGraphic" type="matrix" values="0 0 0 0 1 0 0 0 0 1 0 0 0 0 1 0 0 0 1 0"/> </filter> <mask id="mask0"> <g filter="url(#alpha)"> <rect width="384" height="384" x="0" y="0" style="fill:rgb(0%,0%,0%);fill-opacity:0.301961"/> </g> </mask> <clipPath id="clip1"> <rect width="384" height="384" x="0" y="0"/> </clipPath> <g id="surface5" clip-path="url(#clip1)"> <path style="fill:rgb(0%,0%,0%)" d="M 276.367188 199.496094 C 276.367188 246.09375 238.59375 283.871094 191.996094 283.871094 C 145.394531 283.871094 107.621094 246.09375 107.621094 199.496094 C 107.621094 152.898438 145.394531 115.121094 191.996094 115.121094 C 238.59375 115.121094 276.367188 152.898438 276.367188 199.496094 Z M 276.367188 199.496094"/> </g> <mask id="mask1"> <g filter="url(#alpha)"> <rect width="384" height="384" x="0" y="0" style="fill:rgb(0%,0%,0%);fill-opacity:0.301961"/> </g> </mask> <clipPath id="clip2"> <rect width="384" height="384" x="0" y="0"/> </clipPath> <g id="surface8" clip-path="url(#clip2)"> <path style="fill:rgb(100.000%,100.000%,100.000%)" d="M 191.996094 23.25 C 98.800781 23.25 23.25 98.800781 23.25 191.996094 C 23.28125 193.460938 23.332031 194.921875 23.40625 196.386719 C 25.097656 104.464844 100.0625 30.816406 191.996094 30.75 C 283.441406 30.800781 358.207031 103.6875 360.585938 195.105469 C 360.648438 194.070312 360.699219 193.03125 360.742188 191.996094 C 360.742188 98.800781 285.191406 23.25 191.996094 23.25 Z M 191.996094 23.25"/> </g> <mask id="mask2"> <g filter="url(#alpha)"> <rect width="384" height="384" x="0" y="0" style="fill:rgb(0%,0%,0%);fill-opacity:0.301961"/> </g> </mask> <clipPath id="clip3"> <rect width="384" height="384" x="0" y="0"/> </clipPath> <g id="surface11" clip-path="url(#clip3)"> <path style="fill:rgb(0%,0%,0%)" d="M 360.585938 187.605469 C 358.890625 279.523438 283.929688 353.171875 191.996094 353.242188 C 100.546875 353.1875 25.785156 280.300781 23.40625 188.886719 C 23.34375 189.921875 23.292969 190.957031 23.25 191.996094 C 23.25 285.191406 98.800781 360.742188 191.996094 360.742188 C 285.191406 360.742188 360.742188 285.191406 360.742188 191.996094 C 360.707031 190.53125 360.65625 189.066406 360.585938 187.605469 Z M 360.585938 187.605469"/> </g> </defs> <g> <path style="fill:rgb(100.000%,100.000%,100.000%)" d="M 360.738281 191.996094 C 360.738281 285.191406 285.191406 360.742188 191.996094 360.742188 C 98.800781 360.742188 23.25 285.191406 23.25 191.996094 C 23.25 98.800781 98.800781 23.25 191.996094 23.25 C 285.191406 23.25 360.738281 98.800781 360.738281 191.996094 Z M 360.738281 191.996094"/> <path style="fill-rule:evenodd;fill:rgb(72.156%,9.019%,29.803%)" d="M 145.949219 354.335938 C 145.949219 354.335938 166.613281 360.742188 191.996094 360.742188 C 217.378906 360.742188 238.164062 354.335938 238.164062 354.335938 C 245.6875 345.402344 261.578125 299.378906 253.355469 268.699219 C 245.136719 238.015625 230.347656 222.675781 215.007812 191.996094 C 199.664062 161.3125 191.996094 138.304688 191.996094 115.292969 C 191.996094 92.28125 222.757812 38.507812 238.074219 29.664062 C 238.074219 29.664062 217.523438 23.25 192.003906 23.25 C 166.480469 23.25 145.972656 29.648438 145.972656 29.648438 C 130.59375 38.5625 124.46875 92.28125 130.632812 115.292969 C 136.800781 138.304688 153.644531 161.3125 168.984375 191.996094 C 184.324219 222.675781 191.996094 245.6875 191.996094 268.699219 C 191.996094 291.707031 153.644531 345.402344 145.949219 354.335938 Z M 145.949219 354.335938"/> <path style="fill-rule:evenodd;fill:rgb(72.156%,9.019%,29.803%)" d="M 309.421875 313.179688 C 309.421875 313.179688 324.894531 299.179688 338.078125 276.34375 C 351.265625 253.503906 355.585938 233.382812 355.585938 233.382812 C 351.609375 222.398438 319.730469 185.402344 289.046875 177.179688 C 258.367188 168.960938 237.6875 174.097656 203.445312 172.042969 C 169.207031 169.984375 145.441406 165.125 125.515625 153.617188 C 105.585938 142.113281 74.355469 88.703125 74.355469 71.015625 C 74.355469 71.015625 57.308594 87.667969 45.804688 107.589844 C 34.304688 127.511719 28.398438 150.625 28.398438 150.625 C 28.433594 168.402344 71.824219 200.59375 94.832031 206.761719 C 117.84375 212.925781 146.195312 209.84375 180.4375 211.898438 C 214.675781 213.953125 238.441406 218.816406 258.367188 230.320312 C 278.296875 241.828125 305.53125 302.046875 309.421875 313.179688 Z M 309.421875 313.179688"/> <path style="fill-rule:evenodd;fill:rgb(72.156%,9.019%,29.803%)" d="M 355.589844 149.894531 C 355.589844 149.894531 349.085938 125.820312 338.113281 106.8125 C 327.140625 87.808594 308.84375 70.25 308.84375 70.25 C 297.339844 68.203125 250.179688 77.234375 227.71875 99.695312 C 205.261719 122.152344 199.371094 142.632812 180.46875 171.257812 C 161.570312 199.882812 145.476562 218.03125 125.546875 229.535156 C 105.621094 241.042969 43.5 241.335938 28.179688 232.492188 C 28.179688 232.492188 32.117188 252.5625 45.488281 275.722656 C 58.859375 298.882812 73.90625 312.539062 73.90625 312.539062 C 89.320312 321.398438 139.386719 299.523438 156.230469 282.679688 C 173.074219 265.832031 184.582031 239.738281 203.480469 211.113281 C 222.378906 182.488281 238.472656 164.339844 258.402344 152.835938 C 278.328125 141.328125 344.003906 147.695312 355.589844 149.894531 Z M 355.589844 149.894531"/> <use mask="url(#mask0)" xlink:href="#surface5"/> <path style="fill:rgb(100.000%,100.000%,100.000%)" d="M 276.367188 191.996094 C 276.367188 238.59375 238.59375 276.371094 191.996094 276.371094 C 145.394531 276.371094 107.621094 238.59375 107.621094 191.996094 C 107.621094 145.398438 145.394531 107.621094 191.996094 107.621094 C 238.59375 107.621094 276.367188 145.398438 276.367188 191.996094 Z M 276.367188 191.996094"/> <path style="fill:rgb(0%,0%,0%);fill-opacity:0.2" d="M 276.367188 191.996094 C 276.367188 222.675781 238.59375 268.699219 191.996094 268.699219 C 145.398438 268.699219 107.621094 222.675781 107.621094 191.996094 C 107.621094 238.59375 145.398438 276.367188 191.996094 276.367188 C 238.59375 276.367188 276.367188 238.59375 276.367188 191.996094 Z M 276.367188 191.996094"/> <path style="fill-rule:evenodd;fill:rgb(72.156%,9.019%,29.803%)" d="M 238.015625 191.996094 L 161.3125 138.304688 L 161.3125 245.6875 Z M 238.015625 191.996094"/> <use mask="url(#mask1)" xlink:href="#surface8"/> <use mask="url(#mask2)" xlink:href="#surface11"/> </g> </svg>

<svg width="512" height="512" version="1.1" viewBox="0 0 384 384" xmlns="http://www.w3.org/2000/svg"><defs><clipPath><rect width="384" height="384"/></clipPath><clipPath><rect width="384" height="384"/></clipPath><clipPath><rect width="384" height="384"/></clipPath></defs><path d="m360.74 192c0 93.195-75.547 168.75-168.74 168.75-93.195 0-168.75-75.551-168.75-168.75 0-93.195 75.551-168.75 168.75-168.75 93.195 0 168.74 75.551 168.74 168.75z" fill="#fff"/><g fill="#b8174a" fill-rule="evenodd"><path d="m145.95 354.34s20.664 6.4062 46.047 6.4062c25.383 0 46.168-6.4062 46.168-6.4062 7.5234-8.9336 23.414-54.957 15.191-85.637-8.2188-30.684-23.008-46.023-38.348-76.703-15.344-30.684-23.012-53.691-23.012-76.703s30.762-76.785 46.078-85.629c0 0-20.551-6.4141-46.07-6.4141-25.523 0-46.031 6.3984-46.031 6.3984-15.379 8.9141-21.504 62.633-15.34 85.645 6.168 23.012 23.012 46.02 38.352 76.703 15.34 30.68 23.012 53.691 23.012 76.703 0 23.008-38.352 76.703-46.047 85.637z"/><path d="m309.42 313.18s15.473-14 28.656-36.836c13.188-22.84 17.508-42.961 17.508-42.961-3.9766-10.984-35.855-47.98-66.539-56.203-30.68-8.2188-51.359-3.082-85.602-5.1367-34.238-2.0586-58.004-6.918-77.93-18.426-19.93-11.504-51.16-64.914-51.16-82.602 0 0-17.047 16.652-28.551 36.574-11.5 19.922-17.406 43.035-17.406 43.035 0.03516 17.777 43.426 49.969 66.434 56.137 23.012 6.1641 51.363 3.082 85.605 5.1367 34.238 2.0547 58.004 6.918 77.93 18.422 19.93 11.508 47.164 71.727 51.055 82.859z"/><path d="m355.59 149.89s-6.5039-24.074-17.477-43.082c-10.973-19.004-29.27-36.562-29.27-36.562-11.504-2.0469-58.664 6.9844-81.125 29.445-22.457 22.457-28.348 42.937-47.25 71.562-18.898 28.625-34.992 46.773-54.922 58.277-19.926 11.508-82.047 11.801-97.367 2.957 0 0 3.9375 20.07 17.309 43.23 13.371 23.16 28.418 36.816 28.418 36.816 15.414 8.8594 65.48-13.016 82.324-29.859 16.844-16.848 28.352-42.941 47.25-71.566s34.992-46.773 54.922-58.277c19.926-11.508 85.602-5.1406 97.188-2.9414z"/><path d="m238.02 192-76.703-53.691v107.38z"/></g><path d="m192 115.12c-46.602 0-84.375 37.777-84.375 84.375 0 46.598 37.773 84.375 84.375 84.375 46.598 0 84.372-37.777 84.372-84.375 0-46.598-37.774-84.375-84.372-84.375zm-30.683 30.684 76.702 53.691-76.702 53.692z" opacity=".3"/><path transform="scale(.75)" d="m255.99 143.49c-62.135 0-112.5 50.37-112.5 112.5 0 62.13 50.365 112.5 112.5 112.5 62.13 0 112.5-50.37 112.5-112.5 0-62.13-50.366-112.5-112.5-112.5zm-40.91 40.912l102.27 71.588-102.27 71.59v-143.18z" fill="#fff" stroke-width="1.3333"/><path d="m276.37 192c0 30.68-37.773 76.703-84.371 76.703-46.598 0-84.375-46.023-84.375-76.703 0 46.598 37.777 84.371 84.375 84.371 46.598 0 84.371-37.773 84.371-84.371z" fill-opacity=".2"/><path transform="scale(.75)" d="m255.99 31c-124.26 0-224.99 100.73-224.99 224.99 0 1.6713 0.028195 3.3374 0.064453 5 2.6604-121.95 102.34-219.99 224.93-219.99 122.59 0 222.27 98.044 224.93 219.99 0.03626-1.6626 0.06446-3.3287 0.06446-5 0-124.26-100.73-224.99-224.99-224.99z" fill="#fff" opacity=".3" stroke-width="1.3333"/><path transform="scale(.75)" d="m31.064 250.99c-0.036282 1.6632-0.064453 3.3282-0.064453 5 0 124.26 100.73 225 224.99 225 124.26 0 224.99-100.74 224.99-225 0-1.6718-0.02818-3.3368-0.06446-5-2.6594 121.95-102.34 220-224.93 220-122.59 0-222.27-98.045-224.93-220z" opacity=".3" stroke-width="1.3333"/></svg>
